X:297
T:Reel 297
M:4/4
K:Dmaj
L:1/8
 (3ABc |d>D (3FDF F>E (3EEE | (3FED A>D F>D (3ECE |B>E (3EEE c>E (3EDE |E>ee>d c>A (3EEE |d>D (3DDD F>D (3FED |F>G (3FEF d2cd|B>E (3EFE G>E (3EDE |D2FA AD|A2|d2cd A2BA|DFA2 D2|Bcdc B2 (3GFE |Beed Bcde| (3cdc B>B  (3cBA AG|FEFF E2FE|DCDE FGFG|A>d (3dcd A2FG|
